X: 2945
T: Barring Controversy
R: mazurka
M: 3/4
K: Dmajor
|:A/ d>f|b2 a2 f>e|d>A f2 e>d|c>A g2 f>e|d>A f>A d>f|
b2 a2 f>e|d>A f2 e>d|c>A g>e c>A|d2- d3/2:|
|:e/ (3fed|B2 G>B G>B|A>F f>d A>d|c>A g>e c>A|d>A f>d A>d|
B2 G>B G>B|A>F f>d A>d|c>A g>e c>A|d2- d3/2:|

